static/fa/svgs/solid/gas-pump.svg

<svg xmlns="http://www.w3.org/2000/svg" viewBox="0 0 512 512"><!--! Font Awesome Free 6.1.1 by @fontawesome - https://fontawesome.com License - https://fontawesome.com/license/free (Icons: CC BY 4.0, Fonts: SIL OFL 1.1, Code: MIT License) Copyright 2022 Fonticons, Inc.--><path d="M32 64C32 28.65 60.65 0 96 0h160c35.3 0 64 28.65 64 64v192h8c48.6 0 88 39.4 88 88v32c0 13.3 10.7 24 24 24s24-10.7 24-24V221.1c-27.6-6.2-48-31.3-48-61.1V96l-32-32c-8.8-8.84-8.8-23.16 0-32s23.2-8.84 32 0l77.3 77.3c12 12 18.7 28.2 18.7 45.2V376c0 39.8-32.2 72-72 72s-72-32.2-72-72v-32c0-22.1-17.9-40.9-40-40.9h-8V448c17.7 0 32 14.3 32 32s-14.3 32-32 32H32c-17.67 0-32-14.3-32-32s14.33-32 32-32V64zm64 112c0 8.8 7.2 16 16 16h128c8.8 0 16-7.2 16-16V80c0-8.84-7.2-16-16-16H112c-8.8 0-16 7.16-16 16v96z"/></svg>

<svg xmlns="http://www.w3.org/2000/svg" viewBox="0 0 512 512"><!--! Font Awesome Free 6.1.1 by @fontawesome - https://fontawesome.com License - https://fontawesome.com/license/free (Icons: CC BY 4.0, Fonts: SIL OFL 1.1, Code: MIT License) Copyright 2022 Fonticons, Inc. --><path d="M32 64C32 28.65 60.65 0 96 0H256C291.3 0 320 28.65 320 64V256H328C376.6 256 416 295.4 416 344V376C416 389.3 426.7 400 440 400C453.3 400 464 389.3 464 376V221.1C436.4 214.9 416 189.8 416 160V96L384 64C375.2 55.16 375.2 40.84 384 32C392.8 23.16 407.2 23.16 416 32L493.3 109.3C505.3 121.3 512 137.5 512 154.5V376C512 415.8 479.8 448 440 448C400.2 448 368 415.8 368 376V344C368 321.9 350.1 303.1 328 303.1H320V448C337.7 448 352 462.3 352 480C352 497.7 337.7 512 320 512H32C14.33 512 0 497.7 0 480C0 462.3 14.33 448 32 448V64zM96 176C96 184.8 103.2 192 112 192H240C248.8 192 256 184.8 256 176V80C256 71.16 248.8 64 240 64H112C103.2 64 96 71.16 96 80V176z"/></svg>
